X: 230
T: Shove that Pig’s Foot a Little Farther in the Fire
B: canberra pickers and fiddlers
B: tathra session
B: tunes
M:4/4
L:1/8
Q: 1/4=160
K:G
V:1 
z(B|B)cBA G2 EF|GAGE D3 D|E(F G2) {A}B3c|B2 A6 z(B|
B)cBA G2 EF|GAGE D3D|EF G2 B3G|A (G G4):|
|:BA|B d2 e d3 d|e(dB)c dBGA|B2 d2 [d3g3]g|e2 d4 BA|
B d2 e d3 d|edBc d2 d2|B3 c BAGB|A (G G4):|
% abcbook-tune_id 63ae8f1c0d2b3879622448a8
% abcbook-tune_composer_id 
% abcbook-link-0 https://www.youtube.com/watch?v=IldRYzTIzB8
% abcbook-boost 0
% abcbook-difficulty 0
% abcbook-tags canberra pickers and fiddlers,old time tunes,ralph cullen,steve ryan,tathra session,© free
% abcbook-tablature 
% abcbook-transpose 
% abcbook-tuning GDAD
% abcbook-lastupdated 1675313554687
% abcbook-src-url https://tunebook.net/scrape/tunes.abc
% abcbook-soundfonts 
% abcbook-repeats 1


